!!!!SEGMENT: pl-sa--172-a-v-2--001_szczurowski-jacek--msza-swiateczna-kyrie.krn
!!!cenid: 17xx:261
!!!COM: Szczurowski, Jacek
!!!COM-rismid: pe30017605
!!!CDT: 1716/08/15-~1733
!!!CNT: Polish
!!!OPR: Msza świąteczna
!!!OTL: Kyrie
!!!OMV: 001
!!!PDT:
!!!AGN: Sacred; Mass
!!!SMS-siglum: PL-SA
!!!SMS-shelfmark: 172/A V 2
!!!SMS-shelfwork: 001-001 M
!!!NIFC-rismid:
!!!URL-scan: http://bc.bdsandomierz.pl/dlibra/publication/1506/edition/1474/content
!!!ONB-nifc: UWAGA: części Mszy: Kyrie, Christe, Et in terra, Laudamus, Qui tollis, Quoniam, Patrem, Et Incarnatus, Ressurexit, Sanctus, Osanna, Benedictus, Agnus Dei
**kern	**fba	**kern	**kern	**dynam	**kern	**text	**kern	**text	**kern	**kern
*part7	*	*part6	*part5	*part5	*part4	*part4	*part3	*part3	*part2	*part1
*staff7	*	*staff6	*staff5	*	*staff4	*staff4	*staff3	*staff3	*staff2	*staff1
*I"Organo:	*	*I"Violino 2di	*I"Violino Primo	*	*I"Soprano 2do	*	*I"Soprano Primo	*	*I"Corno 2do ex D	*I"Corno Primo ex D
*I'Org	*	*I'Vl II	*I'Vl I	*	*I'S II	*	*I'S I	*	*I'Cor II	*I'Cor I
*clefF4	*	*clefG2	*clefG2	*	*clefC1	*	*clefC1	*	*clefG2	*clefG2
*	*	*	*	*	*	*	*	*	*ITrd6c10	*ITrd6c10
*k[c#f#]	*	*k[c#f#]	*k[f#c#]	*	*k[c#c#f#]	*	*k[c#c#f#]	*	*k[f#c#]	*k[f#c#]
*D:	*	*D:	*D:	*	*D:	*	*D:	*	*D:	*D:
*M4/4	*	*M4/4	*M4/4	*	*M4/4	*	*M4/4	*	*M4/4	*M4/4
*met(c)	*	*met(c)	*met(c)	*	*met(c)	*	*met(c)	*	*met(c)	*met(c)
=1	=1	=1	=1	=1	=1	=1	=1	=1	=1	=1
!	!	!	!	!	!	!	!	!	!	!LO:SIC:s:o=:v:problem:chorągiewki 8 i 16 w lewą stronę:GLOBAL
!LO:TX:a:B:t=Adagio	!	!LO:TX:a:B:t=Adagio	!	!	!LO:TX:a:B:t=Adagio	!	!LO:TX:a:B:t=Adagio	!	!LO:TX:a:B:t=Adagio	!LO:TX:a:B:t=Adagio
8.D/L	.	8.f#/L	8.dd\L	.	8.f#/	Kÿ-	8.dd\	Kÿ-	4d\	4f#\
16D/K	.	16f#/K	16dd\K	.	16f#/	-ri-	16dd\	-ri-	.	.
8.D/	.	8.f#/	8.dd\	.	8.f#/	-e	8.dd\	-e	4d\	4f#\
16D/Jk	.	16f#/Jk	16dd\Jk	.	16f#/	e-	16dd\	e-	.	.
8.G\L	.	8.b/L	8.dd\L	.	4b\	-lej-	4dd\	-lei-	4d\	4b\
16G\K	.	16b/K	16dd\K	.	.	.	.	.	.	.
8.G\	.	8.b/	8.dd\	.	4b\	-ſon	4dd\	-ſon	4d\	4b\
16G\Jk	.	16b/Jk	16dd\Jk	.	.	.	.	.	.	.
=2	=2	=2	=2	=2	=2	=2	=2	=2	=2	=2
*	*	*	*	*	*	*	*	*	*	*2\right
8.A\L	.	8.cc#\L	8.ee\L	.	8.cc#\	Kÿ-	8.ee\	Kÿ-	2A/	2e\
16A\K	.	16cc#\K	16ee\K	.	16cc#\	-ri-	16ee\	-ri-	.	.
8.A\	.	8.cc#\	8.ee\	.	8.cc#\	-e	8.ee\	-e	.	.
16A\Jk	.	16cc#\Jk	16ee\Jk	.	16cc#\	e-	16ee\	e-	.	.
8.G\L	4 2	8.cc#\L	8.ee\L	.	4cc#\	-lej-	4ee\	-leÿ-	4A/	4e\
16G\K	.	16cc#\K	16ee\K	.	.	.	.	.	.	.
8.G\	.	8.cc#\	8.ee\	.	4cc#\	-ſon	4ee\	-ſon	4A/	4e\
16G\Jk	.	16cc#\Jk	16ee\Jk	.	.	.	.	.	.	.
=3	=3	=3	=3	=3	=3	=3	=3	=3	=3	=3
*	*	*	*	*	*	*	*	*	*2\right	*
8.F#\L	6	8.a/L	8.dd\L	.	8.a\	Kÿ-	8.dd\	Kÿ-	2d\	2f#\
16F#\K	.	16a/K	16dd\K	.	16a\	-ri-	16dd\	-ri-	.	.
8.F#\	.	8.a/	8.dd\	.	8.a\	-e	8.dd\	-e	.	.
16F#\Jk	.	16a/Jk	16dd\Jk	.	16a\	e-	16dd\	e-	.	.
8.E\L	7	8.g/L	8.dd\L	.	2g/	-lej-	4dd\	-lei-	4d\	4g\
16E\K	.	16g/K	16dd\K	.	.	.	.	.	.	.
8.AA\	7	8.g/	8.cc#\	.	.	.	4cc#\	.	4e\	4g\
16AA\Jk	.	16g/Jk	16cc#\Jk	.	.	.	.	.	.	.
=4	=4	=4	=4	=4	=4	=4	=4	=4	=4	=4
8.D/L	.	8.f#/L	8.dd\L	.	4f#/	-ſon	4dd\	-ſon	4d\	4f#\
16D/K	.	16f#/K	16dd\K	.	.	.	.	.	.	.
8.D/	.	8.f#/	8.dd\	.	4f#/	e-	4dd\	e-	4d\	4f#\
16D/Jk	.	16f#/Jk	16dd\Jk	.	.	.	.	.	.	.
!	!	!	!	!	!LO:LB:g=original	!	!LO:LB:g=original	!	!	!
*	*	*	*	*	*2\right	*	*2\right	*	*	*
8.G#X\L	6 2	8.dd\L	8.ffn\L	.	2dd\	-lej-	2ffn\	-lei-	2d\	2fX\
16G#\K	.	16dd\K	16ff\K	.	.	.	.	.	.	.
8.G#\	.	8.dd\	8.ff\	.	.	.	.	.	.	.
16G#\Jk	.	16dd\Jk	16ff\Jk	.	.	.	.	.	.	.
!LO:LB:g=original	!	!	!	!	!	!	!	!	!	!
=5	=5	=5	=5	=5	=5	=5	=5	=5	=5	=5
!	!	!	!	!LO:DY:a:t=pia&colon;	!	!	!	!	!	!
8A\L	.	8.cc#\L	8.ee\L	p	8.cc#\L	.	8.ee\L	.	8.A/L	8.e\L
8A\	6 4	.	.	.	.	.	.	.	.	.
.	.	16dd\K	16ff#X\K	.	16dd\K	.	16ff#X\K	.	16d/K	16f#\K
8A\	7 3	8.ee\	8.gg\	.	8.ee\	.	8.gg\	.	8.e/	8.g\
8A\J	.	.	.	.	.	.	.	.	.	.
.	.	16dd\Jk	16ff#\Jk	.	16dd\Jk	.	16ff#\Jk	.	16d/Jk	16f#\Jk
!	!	!LO:LB:g=original	!LO:LB:g=original	!	!	!	!	!	!	!
8A\L	.	8.cc#\L	8.ee\L	.	8.cc#\L	.	8.ee\L	.	8.A/L	8.e\L
8A\	.	.	.	.	.	.	.	.	.	.
.	.	16ee\K	16ccc#\K	.	16e\Jk	.	16cc#\Jk	.	16e/K	16cc#\K
8A\	5 4	8.ff#\	8.ddd\	.	4f#/	-ſon	4dd\	-ſon	8.f#/	8.dd\
8A\J	.	.	.	.	.	.	.	.	.	.
.	.	16dd\Jk	16aa\Jk	.	.	.	.	.	16f#/Jk	16a\Jk
=6	=6	=6	=6	=6	=6	=6	=6	=6	=6	=6
!	!	!	!	!	!	!	!	!	!LO:TX:a:t=1	!LO:TX:a:t=1
8AA/L	.	8.c#/L	8.e/L	.	8.e/L	e-	8.cc#\L	e-	1r	1r
8AA/	6 4	.	.	.	.	.	.	.	.	.
.	.	16d/K	16f#/K	.	16f#/K	.	16dd\K	.	.	.
8AA/	7 3	8.e/	8.g/	.	8.g/	.	8.ee\	.	.	.
8AA/J	.	.	.	.	.	.	.	.	.	.
.	.	16d/Jk	16f#/Jk	.	16f#/Jk	.	16dd\Jk	.	.	.
8AA/L	.	8.c#/L	8.e/L	.	4e/	-lej-	4cc#\	-lei-	.	.
8AA/	.	.	.	.	.	.	.	.	.	.
.	.	16e/K	16cc#/K	.	.	.	.	.	.	.
8AA/	6 4	8.f#/	8.dd/	.	4f#/	-ſon	4dd\	-ſon	.	.
8AA/J	.	.	.	.	.	.	.	.	.	.
.	.	16e/Jk	16cc#/Jk	.	.	.	.	.	.	.
=7	=7	=7	=7	=7	=7	=7	=7	=7	=7	=7
!LO:TX:a:B:t=allo	!	!LO:TX:a:B:t=allo	!LO:TX:a:B:t=allo	!	!LO:TX:a:B:t=allo	!	!LO:TX:a:B:t=allö	!	!LO:TX:a:B:t=allo	!LO:TX:a:B:t=allo
8D\L	.	16f#/LL	16dd\LL	.	4f#/	Kÿ-	4dd\	Kÿ-	8d\L	8f#\L
.	.	16f#/	16dd\	.	.	.	.	.	.	.
8D\	.	16f#/	16dd\	.	.	.	.	.	8d\	8f#\
.	.	16f#/JJ	16dd\JJ	.	.	.	.	.	.	.
!	!	!	!	!LO:DY:a:t=for	!	!	!	!	!	!
8F#\	6	16f#/LL	16a/LL	f	4f#/	-ri-	4a\	-ri-	8f#\	8a\
.	.	16f#/	16a/	.	.	.	.	.	.	.
8F#\J	6	16f#/	16a/	.	.	.	.	.	8f#\J	8a\J
.	.	16f#/JJ	16a/JJ	.	.	.	.	.	.	.
8G\L	6_	16g/LL	16b\LL	.	4g/	-e	4b\	-e	8g\L	8b\L
.	.	16g/	16b\	.	.	.	.	.	.	.
8G\	.	16g/	16b\	.	.	.	.	.	8g\	8b\
.	.	16g/JJ	16b\JJ	.	.	.	.	.	.	.
8G\	.	16ee\LL	16gg\LL	.	4ee\	e-	4gg\	e-	8e\	8g\
.	.	16ee\	16gg\	.	.	.	.	.	.	.
8G\J	.	16ee\	16gg\	.	.	.	.	.	8e\J	8g\J
.	.	16ee\JJ	16gg\JJ	.	.	.	.	.	.	.
=8	=8	=8	=8	=8	=8	=8	=8	=8	=8	=8
8A\L	6 4_	16dd\LL	16ff#\LL	.	2dd\	-lej-	2ff#\	-leÿ-	8d\L	8f#\L
.	.	16dd\	16ff#\	.	.	.	.	.	.	.
8A\	.	16dd\	16ff#\	.	.	.	.	.	8d\	8f#\
.	.	16dd\JJ	16ff#\JJ	.	.	.	.	.	.	.
8A\	.	16dd\LL	16ff#\LL	.	.	.	.	.	8d\	8f#\
.	.	16dd\	16ff#\	.	.	.	.	.	.	.
8A\J	.	16dd\	16ff#\	.	.	.	.	.	8d\J	8f#\J
.	.	16dd\JJ	16ff#\JJ	.	.	.	.	.	.	.
8AA/L	5 3_	16cc#\LL	16ee\LL	.	2cc#\	.	2ee\	.	8A/L	8e\L
.	.	16cc#\	16ee\	.	.	.	.	.	.	.
8AA/	.	16cc#\	16ee\	.	.	.	.	.	8A/	8e\
.	.	16cc#\JJ	16ee\JJ	.	.	.	.	.	.	.
8AA/	.	16cc#\LL	16ee\LL	.	.	.	.	.	8A/	8e\
.	.	16cc#\	16ee\	.	.	.	.	.	.	.
8AA/J	.	16cc#\	16ee\	.	.	.	.	.	8A/J	8e\J
.	x	16cc#\JJ	16ee\JJ	.	.	.	.	.	.	.
=9	=9	=9	=9	=9	=9	=9	=9	=9	=9	=9
*	*	*2\right	*2\right	*	*	*	*	*	*	*
2D/	.	2dd\	2dd\	.	2dd\	-ſon	2dd\	-ſon	2F#/	2d\
2r	.	2r	2r	.	2r	.	2r	.	2r	2r
!	!	!	!	!	!LO:TX:a:t=9	!	!	!	!	!
==:||:	==:||:	==:||:	==:||:	==:||:	==:||:	==:||:	==:||:	==:||:	==	==
*-	*-	*-	*-	*-	*-	*-	*-	*-	*-	*-
!!!system-decoration: [(s1,s2)][(s3,s4)][(s5,s6)]s7
!!!RDF**kern: > = above
!!!RDF**kern: < = below
!!!EED: Leszek Kubiak
!!!EST: 2020-09-23
!!!ENC: Andrzej Kubiczek
!!!END: 2020-04-15
